X:33
T:jl caerdydd
R:can (song)
S:elfed lewis
A:cymru
G:llais
Z:ceri rhys matthews
M:6/8
L:1/4
Q:1/4=100
K:Em
E/|EE/B,G/|G/F>z/|E/E/E/D/F|E>zE/|
EB,/(B,/2G/2)(G/2F/2F/2)|EG/FE/|^D>z||:
B,/|B,/E/G/G/F/A/-|(A/2z/2)G>F/|E>(D/4 C/4)B,2(z/4 B,/4)|
B,/E/G/G/F/A/|GA/B>|z/B/B/A/G/A/|B/AA/G/>F/2|
E/F/G/FB,/|E/E/G/G/F/A/-|A/(G/4F/4)ED/F/|E>z2:||
